src/lib/packages/icons/src/assets/line/sticky-note-square-smile.svg

<svg xmlns="http://www.w3.org/2000/svg" width="24" height="24" fill="none"><path fill="currentColor" d="M13.76 10a1.25 1.25 0 1 1 2.5 0 1.25 1.25 0 0 1-2.5 0Zm-3.5 0a1.25 1.25 0 0 0-2.5 0c0 .69.57 1.25 1.25 1.25s1.25-.56 1.25-1.25Zm4.4 4.2a.748.748 0 0 0-1-.34c-1.02.51-2.27.52-3.34 0a.752.752 0 0 0-1 .35c-.18.37-.02.82.35 1 .73.35 1.51.53 2.31.53s1.62-.18 2.34-.54c.37-.18.52-.63.34-1.01v.01Zm7.08-7.83v7.38c0 1-.39 1.94-1.1 2.65l-4.24 4.24c-.7.7-1.66 1.1-2.65 1.1H6.37c-2.78 0-4.12-1.35-4.12-4.12V6.37c0-2.78 1.35-4.12 4.12-4.12h11.25c2.78 0 4.12 1.35 4.12 4.12Zm-7.99 13.88c.17 0 .33-.02.49-.06V18.5a4.26 4.26 0 0 1 4.25-4.25h1.69c.04-.16.06-.32.06-.49V6.38c0-1.96-.66-2.62-2.62-2.62H6.37c-1.96 0-2.62.66-2.62 2.62v11.25c0 1.96.66 2.62 2.62 2.62h7.38Zm5.43-4.5h-.69c-1.52 0-2.75 1.23-2.75 2.75v.69l3.44-3.44Z"/></svg>

<svg width="24" height="24" viewBox="0 0 24 24" fill="none" xmlns="http://www.w3.org/2000/svg">
<path d="M13.76 10C13.76 9.31 14.31 8.75 15.01 8.75C15.7 8.75 16.26 9.31 16.26 10C16.26 10.69 15.7 11.25 15.01 11.25C14.32 11.25 13.76 10.69 13.76 10ZM10.26 10C10.26 9.31 9.70001 8.75 9.01001 8.75C8.32001 8.75 7.76001 9.31 7.76001 10C7.76001 10.69 8.33001 11.25 9.01001 11.25C9.69001 11.25 10.26 10.69 10.26 10ZM14.66 14.2C14.48 13.83 14.03 13.68 13.66 13.86C12.64 14.37 11.39 14.38 10.32 13.86C9.95001 13.68 9.50001 13.84 9.32001 14.21C9.14001 14.58 9.30001 15.03 9.67001 15.21C10.4 15.56 11.18 15.74 11.98 15.74C12.78 15.74 13.6 15.56 14.32 15.2C14.69 15.02 14.84 14.57 14.66 14.19V14.2ZM21.74 6.37V13.75C21.74 14.75 21.35 15.69 20.64 16.4L16.4 20.64C15.7 21.34 14.74 21.74 13.75 21.74H6.37C3.59 21.74 2.25 20.39 2.25 17.62V6.37C2.25 3.59 3.6 2.25 6.37 2.25H17.62C20.4 2.25 21.74 3.6 21.74 6.37ZM13.75 20.25C13.92 20.25 14.08 20.23 14.24 20.19V18.5C14.24 16.16 16.15 14.25 18.49 14.25H20.18C20.22 14.09 20.24 13.93 20.24 13.76V6.38C20.24 4.42 19.58 3.76001 17.62 3.76001H6.37C4.41 3.76001 3.75 4.42 3.75 6.38V17.63C3.75 19.59 4.41 20.25 6.37 20.25H13.75ZM19.18 15.75H18.49C16.97 15.75 15.74 16.98 15.74 18.5V19.19L19.18 15.75Z" fill="currentColor"/>
</svg>
